X:1
T:Title
%%score { ( 1 3 ) | ( 2 4 ) }
L:1/8
Q:1/4=100
M:6/8
K:Db
V:1 treble nm="Grand Piano"
V:3 treble 
V:2 bass 
V:4 bass 
V:1
 [FA][GB][Gc] [Fd]>[FA][FA] | [FA][EG][DF] [CA] [CE]2 | EEF G>[Ec][GB] | [FA][Fd][_FB] [A,=FA]3 | %4
w: Mrs.~C.~H.~Morris * * * * *||||
 ABc [Fd]>[Ec][Fd] | edB [FA] [Fd]2 | [Fd][Fc][FB] [Ae]>[Ad][Ac] | [D=GB][EGc][DGB] [CEA]3 | %8
w: ||||
[M:1/8] A |[M:3/4] z A- A3 z | [FA]6 | z d- d3 z | d6 | [Fd]>[Fd] [Fd][Fd] [Ac][GB] | %14
w: ||||||
 z [FA]- [FA]3 z | z E- E3 z | [CE]6 | [A,DF]>[A,DF] [A,DF][A,CE] [A,B,D][A,CE] | z [FA]- [FA]3 z | %19
w: |||||
 z d- d3 z | d6 | [Fd]>[Fd] [Fd][GB] [FA][Fd] | z [DF]- [DF]3 z | z [DF]- [DF]3[K:bass] z | D6 |] %25
w: ||||||
V:2
 [D,D][G,D][E,A,] [D,A,]>[D,D][D,D] | [D,D][D,A,][D,A,] [A,,A,] [A,,A,]2 | %2
 [G,A,C][G,A,C][F,A,D] [E,A,C]>[A,,A,][A,,A,] | [D,A,][D,A,][D,=G,] D,3 | %4
 A,[K:treble][A,=G][A,_G][K:bass] [D,A,]>[D,A,][D,A,] | [G,B,G][G,B,G][G,DG] [D,D] [D,A,]2 | %6
 [B,,B,][C,=A,][D,_A,] [E,C]>[E,B,][E,A,] | E,E,E, A,,3 |[M:1/8][K:treble] G | %9
[M:3/4] z[K:bass] F- F3 z | D,D, D, D,2[K:treble] F | z G- G3[K:bass] z | %12
 [D,A,][D,A,] [D,B,] [D,A,]2 [D,D] | [D,A,]>[D,A,] [D,A,][D,A,] [D,B,][D,C] | %14
 [D,D][D,D] D,D, D,[D,A,D] | z D- D3 z | A,E, C, A,,2 A,, | D,>D, D,A,, A,,A,, | %18
 D,D, D,D, D,[K:treble]F | z G- G3[K:bass] z | [D,A,][D,A,] [D,B,] [D,A,]2 [D,D] | %21
 [D,A,]>[D,A,] [D,A,][D,D] [D,D][D,A,] | [D,D][D,A,] D,D, D,B, | A,,A,, A,, A,,2 C | %24
 [D,F,A,][D,F,] [D,G,] [D,F,]3 |] %25
V:3
 x6 | x6 | x6 | x6 | x6 | x6 | x6 | x6 |[M:1/8] x |[M:3/4] .A2 DD D[A,DF] | DD D D2 A | %11
 .d2 B,B, B,B | FF G F2 [FA] | x6 | .[GB]2 DD DF | .F2 =G, G,2 F | z A, A, A,2 [A,CA] | x6 | %18
 [A,DF]D DD DA | .d2 B,B, B,B | FF G F2 [FA] | x6 | .[FA]2 A,A, A,D | [A,DF]A, A,[K:bass] A,2 E | %24
 z A, B, A,3 |] %25
V:4
 x6 | x6 | x6 | x6 | x[K:treble] x2[K:bass] x3 | x6 | x6 | x6 |[M:1/8][K:treble] x | %9
[M:3/4] .F2[K:bass] D,D, D,D, | x5[K:treble] x | .G2 G,[K:bass]G, G,G | x6 | x6 | x6 | %15
 [E,A,D][E,=G,] E, E,2 D | x6 | x6 | x5[K:treble] x | .G2 G,[K:bass]G, G,G | x6 | x6 | x6 | x6 | %24
 x6 |] %25

